assets/icons/qvision/import_export.svg

<svg xmlns="http://www.w3.org/2000/svg" height="24" viewBox="0 0 24 24" width="24"><path d="M0 0h24v24H0z" fill="none"/><path d="M9 3L5 6.99h3V14h2V6.99h3L9 3zm7 14.01V10h-2v7.01h-3L15 21l4-3.99h-3z"/></svg>

<svg width="24" height="24" viewBox="0 0 24 24" fill="none" xmlns="http://www.w3.org/2000/svg">
<g clip-path="url(#clip0_147_1854)">
<path d="M9 3L5 6.99H8V14H10V6.99H13L9 3ZM16 17.01V10H14V17.01H11L15 21L19 17.01H16Z" fill="#323232"/>
</g>
<defs>
<clipPath id="clip0_147_1854">
<rect width="24" height="24" fill="white"/>
</clipPath>
</defs>
</svg>
